X:1537
T:Die vier branslen
O:england
S:E.P.Band
R:Branle
M:4/4
B:from Susato's Danserye of 1551 (thanks Elaine Charlson for that)
K:A
c2cB AGAB|c2ed c2B2|c2cB AGAB|c2ed B4::\
cdef edcB|c2A2 A2c2|d2c2 B4::
cde2 cde2|cdef d2c2|f3e d2c2|f3e d2c2|
cdec dcBA|GABG A2ed|c2BA B2ed|c2B2 A2ed|\
c2BA B2ed|c2B2 A4:|
